assets/images/svg/icons/social/dzone_hover.svg

<svg xmlns="http://www.w3.org/2000/svg" viewBox="0 0 40 40"><defs><style>.a{fill:#0094e4;}.b{fill-opacity:0.25;}.c{fill:#fff;}</style></defs><title>dzone_hover</title><rect class="a" width="40" height="40"/><rect class="b" width="40" height="40"/><path class="c" d="M33,12a2.37,2.37,0,0,0-2.3,1.8L20,10.3a1.4,1.4,0,0,0-2.8,0,1,1,0,0,0,.4.9L6.3,24.1C6.2,24.1,6,24,5.9,24a1.3,1.3,0,1,0,0,2.6A1.23,1.23,0,0,0,7,25.9l10.3,2.5v0.5a2.26,2.26,0,0,0,2.3,2.3,2.33,2.33,0,0,0,2.3-2.3,1.7,1.7,0,0,0-.1-0.7L29.7,25a1.27,1.27,0,0,0,.9.4,1.22,1.22,0,0,0,1.2-1.2,1.23,1.23,0,0,0-.5-1l1.3-6.3a1.27,1.27,0,0,0,.6.1,2.43,2.43,0,0,0,2.4-2.4A2.79,2.79,0,0,0,33,12h0Zm-13.6-.6,4.8,5.9-4.9,2L19,11.6a1.47,1.47,0,0,0,.4-0.2h0Zm-0.8.3,0.3,7.8-2.2.9a1.76,1.76,0,0,0-.4-0.5l1.9-8.3a2.27,2.27,0,0,0,.4.1h0ZM16.8,21V20.7l2.1-.9,0.3,6.7a4.33,4.33,0,0,0-.5.1L16.4,22a1.28,1.28,0,0,0,.4-1h0Zm4.1,6a3,3,0,0,0-1.3-.5l-0.3-6.8,5.2-2.1,2.3,2.9L20.9,27h0Zm3.9-9.5,5.9-2.4a1.61,1.61,0,0,0,.4.7l-4,4.4-2.3-2.7h0Zm5.8-2.8-6.1,2.5-4.9-6,0.3-.6,10.7,3.5v0.6h0ZM17.8,11.4h0L16,19.7a0.9,0.9,0,0,0-.5-0.1A1.37,1.37,0,0,0,14.1,21a0.6,0.6,0,0,0,.1.4l-7.4,3-0.1-.1L17.8,11.4h0ZM7.1,25.6V25.3a1.42,1.42,0,0,0-.2-0.6l7.3-3a1.25,1.25,0,0,0,1.1.6,1.85,1.85,0,0,0,.7-0.2l2.2,4.7a2.94,2.94,0,0,0-1,1.2L7.1,25.6h0Zm14.4,2.3c-0.1-.2-0.3-0.4-0.4-0.6L27,20.8l2.3,2.8a1.27,1.27,0,0,0-.1.6,1.42,1.42,0,0,0,.2.6l-7.9,3.1h0Zm9.3-5a0.6,0.6,0,0,0-.4-0.1,1,1,0,0,0-.9.4l-2.2-2.7,4-4.4a5.55,5.55,0,0,0,.8.6l-1.3,6.2h0Z"/></svg>

<?xml version="1.0" encoding="utf-8"?>
<!-- Generator: Adobe Illustrator 19.2.0, SVG Export Plug-In . SVG Version: 6.00 Build 0)  -->
<svg version="1.1" id="Layer_1" xmlns:sketch="http://www.bohemiancoding.com/sketch/ns"
	 xmlns="http://www.w3.org/2000/svg" xmlns:xlink="http://www.w3.org/1999/xlink" x="0px" y="0px" viewBox="0 0 40 40"
	 style="enable-background:new 0 0 40 40;" xml:space="preserve">
<style type="text/css">
	.st0{fill:#0094E4;}
	.st1{fill-opacity:0.3;}
	.st2{fill:#FFFFFF;}
</style>
<title>dzone_hover</title>
<desc>Created with Sketch.</desc>
<g id="Page-1" sketch:type="MSPage">
	<g id="dzone_hover" sketch:type="MSLayerGroup">
		<g id="bg">
			<g sketch:type="MSShapeGroup">
				<rect id="path-1" class="st0" width="40" height="40"/>
			</g>
			<g>
				<rect id="path-1_1_" class="st1" width="40" height="40"/>
			</g>
		</g>
		<path id="icon" sketch:type="MSShapeGroup" class="st2" d="M33,12c-1.1,0-2.1,0.8-2.3,1.8L20,10.3c0-0.8-0.6-1.4-1.4-1.4
			c-0.8,0-1.4,0.6-1.4,1.4c0,0.4,0.1,0.7,0.4,0.9L6.3,24.1C6.2,24.1,6,24,5.9,24c-0.7,0-1.3,0.6-1.3,1.3c0,0.7,0.6,1.3,1.3,1.3
			c0.5,0,0.9-0.3,1.1-0.7l10.3,2.5c0,0.2,0,0.3,0,0.5c0,1.3,1,2.3,2.3,2.3c1.2,0,2.3-1,2.3-2.3c0-0.2,0-0.5-0.1-0.7l7.9-3.2
			c0.2,0.2,0.5,0.4,0.9,0.4c0.7,0,1.2-0.6,1.2-1.2c0-0.4-0.2-0.8-0.5-1l1.3-6.3c0.2,0.1,0.4,0.1,0.6,0.1c1.3,0,2.4-1.1,2.4-2.4
			C35.4,13.1,34.3,12,33,12L33,12z M19.4,11.4l4.8,5.9l-4.9,2L19,11.6C19.2,11.5,19.3,11.5,19.4,11.4L19.4,11.4z M18.6,11.7l0.3,7.8
			l-2.2,0.9c-0.1-0.2-0.2-0.3-0.4-0.5l1.9-8.3C18.3,11.6,18.4,11.7,18.6,11.7L18.6,11.7z M16.8,21c0-0.1,0-0.2,0-0.3l2.1-0.9
			l0.3,6.7c-0.2,0-0.4,0.1-0.5,0.1L16.4,22C16.7,21.7,16.8,21.4,16.8,21L16.8,21z M20.9,27c-0.4-0.3-0.8-0.4-1.3-0.5l-0.3-6.8
			l5.2-2.1l2.3,2.9L20.9,27L20.9,27z M24.8,17.5l5.9-2.4c0.1,0.3,0.2,0.5,0.4,0.7l-4,4.4L24.8,17.5L24.8,17.5z M30.6,14.7l-6.1,2.5
			l-4.9-6c0.1-0.2,0.2-0.4,0.3-0.6l10.7,3.5c0,0.1,0,0.2,0,0.3C30.6,14.5,30.6,14.6,30.6,14.7L30.6,14.7z M17.8,11.4
			C17.8,11.4,17.8,11.4,17.8,11.4L16,19.7c-0.2-0.1-0.3-0.1-0.5-0.1c-0.8,0-1.4,0.6-1.4,1.4c0,0.1,0,0.3,0.1,0.4l-7.4,3
			c0,0-0.1-0.1-0.1-0.1L17.8,11.4L17.8,11.4z M7.1,25.6c0-0.1,0-0.2,0-0.3c0-0.2-0.1-0.4-0.2-0.6l7.3-3c0.2,0.4,0.7,0.6,1.1,0.6
			c0.2,0,0.5-0.1,0.7-0.2l2.2,4.7c-0.4,0.3-0.8,0.7-1,1.2L7.1,25.6L7.1,25.6z M21.5,27.9c-0.1-0.2-0.3-0.4-0.4-0.6l5.9-6.5l2.3,2.8
			c-0.1,0.2-0.1,0.4-0.1,0.6c0,0.2,0.1,0.4,0.2,0.6L21.5,27.9L21.5,27.9z M30.8,22.9c-0.1-0.1-0.3-0.1-0.4-0.1
			c-0.4,0-0.7,0.1-0.9,0.4l-2.2-2.7l4-4.4c0.2,0.2,0.5,0.4,0.8,0.6L30.8,22.9L30.8,22.9z"/>
	</g>
</g>
</svg>
